chains/euphoria/logo.svg

<svg width="898" height="973" viewBox="0 0 898 973" fill="none" xmlns="http://www.w3.org/2000/svg">
<path d="M835.65 570.068C829.343 566.505 823.104 562.745 816.998 558.984C762.719 525.14 762.719 446.963 816.998 413.185C823.104 409.359 829.343 405.664 835.65 402.102C894.693 368.588 914.956 294.303 880.872 236.247C846.788 178.192 771.24 158.268 712.197 191.782C709.177 193.497 706.091 195.212 703.005 196.862C644.7 228.462 572.305 188.021 572.171 122.643V121.389C572.171 54.3613 516.885 0 448.717 0C380.549 0 325.263 54.3613 325.263 121.389C325.263 121.785 325.263 122.247 325.263 122.643C325.129 188.087 252.734 228.462 194.429 196.862C191.343 195.212 188.324 193.497 185.238 191.782C126.194 158.268 50.6462 178.126 16.5623 236.247C-17.5217 294.303 2.67373 368.588 61.7839 402.102C68.0907 405.664 74.3305 409.425 80.4361 413.185C134.715 447.029 134.715 525.206 80.4361 558.984C74.3305 562.811 68.0907 566.505 61.7839 570.068C2.74082 603.582 -17.5217 677.801 16.5623 735.922C50.6462 794.044 126.194 813.902 185.238 780.388C188.257 778.672 191.343 776.957 194.429 775.308C252.734 743.707 325.129 784.148 325.263 849.527C325.263 849.923 325.263 850.385 325.263 850.78C325.263 917.808 380.549 972.17 448.717 972.17C516.885 972.17 572.171 917.808 572.171 850.78V849.527C572.305 784.082 644.7 743.707 703.005 775.242C706.091 776.891 709.11 778.606 712.197 780.322C771.24 813.836 846.788 793.978 880.872 735.856C914.956 677.801 894.76 603.516 835.65 570.002V570.068ZM828.538 706.235C817.334 725.367 796.333 737.242 773.789 737.242C762.853 737.242 751.984 734.339 742.389 728.929C653.221 678.328 551.707 651.544 448.717 651.544C345.727 651.544 244.213 678.328 155.045 728.929C145.316 734.471 134.715 737.242 123.645 737.242C101.101 737.242 80.1677 725.367 68.8959 706.235C51.5184 676.613 61.851 638.613 91.9763 621.526C273.131 518.675 385.648 327.025 385.648 121.389C385.648 87.2155 413.962 59.3752 448.717 59.3752C483.472 59.3752 511.786 87.2155 511.786 121.389C511.786 327.025 624.303 518.675 805.458 621.526C820.017 629.839 830.484 643.165 834.845 659.196C839.206 675.228 836.992 691.919 828.538 706.235Z" fill="url(#paint0_linear_1178_6223)" style=""/>
<defs>
<linearGradient id="paint0_linear_1178_6223" x1="624.933" y1="768.413" x2="373.08" y2="162.818" gradientUnits="userSpaceOnUse">
<stop stop-color="#FFD569" style="stop-color:#FFD569;stop-color:color(display-p3 1.0000 0.8353 0.4118);stop-opacity:1;"/>
<stop offset="0.515056" stop-color="#FC8E4F" style="stop-color:#FC8E4F;stop-color:color(display-p3 0.9882 0.5569 0.3098);stop-opacity:1;"/>
<stop offset="1" stop-color="#FF697B" style="stop-color:#FF697B;stop-color:color(display-p3 1.0000 0.4118 0.4824);stop-opacity:1;"/>
</linearGradient>
</defs>
</svg>

<svg xmlns="http://www.w3.org/2000/svg" width="898" height="973" fill="none"><path fill="url(#a)" d="M835.6 570a575 575 0 0 1-18.6-11 85.6 85.6 0 0 1 0-145.8 476 476 0 0 1 18.6-11.1A120.3 120.3 0 0 0 881 236.2c-34.1-58-109.7-78-168.7-44.4a414 414 0 0 1-9.2 5c-58.3 31.7-130.7-8.8-130.8-74.2v-1.2C572.2 54.4 516.9 0 448.7 0a122.5 122.5 0 0 0-123.4 121.4v1.2c-.2 65.5-72.6 105.9-130.9 74.3l-9.2-5.1a124.6 124.6 0 0 0-168.6 44.4c-34.1 58.1-14 132.4 45.2 165.9 6.3 3.6 12.5 7.3 18.6 11a85.6 85.6 0 0 1 0 145.9 476 476 0 0 1-18.6 11 120.3 120.3 0 0 0-45.2 166c34 58 109.6 77.9 168.6 44.4l9.2-5c58.3-31.7 130.7 8.7 130.9 74.1v1.3c0 67 55.2 121.4 123.4 121.4s123.5-54.4 123.5-121.4v-1.3c.1-65.4 72.5-105.8 130.8-74.3l9.2 5.1A124.6 124.6 0 0 0 880.9 736c34-58.1 13.9-132.4-45.3-165.9Zm-7 136.2a63.5 63.5 0 0 1-86.2 22.7 596 596 0 0 0-587.4 0A63.6 63.6 0 0 1 69 706.2a61.5 61.5 0 0 1 23-84.7C273.2 518.7 385.7 327 385.7 121.4c0-34.2 28.4-62 63.1-62 34.8 0 63 27.8 63 62 0 205.6 112.6 397.3 293.8 500.1a61.9 61.9 0 0 1 29.3 37.7c4.4 16 2.2 32.7-6.3 47Z"/><defs><linearGradient id="a" x1="624.9" x2="373.1" y1="768.4" y2="162.8" gradientUnits="userSpaceOnUse"><stop stop-color="#FFD569" style="stop-color:#ffd569;stop-color:color(display-p3 1 .8353 .4118);stop-opacity:1"/><stop offset=".5" stop-color="#FC8E4F" style="stop-color:#fc8e4f;stop-color:color(display-p3 .9882 .5569 .3098);stop-opacity:1"/><stop offset="1" stop-color="#FF697B" style="stop-color:#ff697b;stop-color:color(display-p3 1 .4118 .4824);stop-opacity:1"/></linearGradient></defs></svg>
